X:9
T: WIE IST DIE TRENNUNG DOCH SO SCHWER
N: B0497
O: Europa, Mitteleuropa, Deutschland, Rheinland
R: Abschieds - Lied
M: 3/4
L: 1/16
K: G
D4 | B3AG2G2F2G2 | A4z4
D4 | c3BA4d4 | B8
D4 | B3AG2G2F2G2 | A4z4
D4 | c3BA4d4 | B8z2
G2 | F2G2A6A2 | G2A2B4z2
G2 | F2G2A6A2 | G2A2B4z2
G2 | E3FG2F2G2A2 | B8
D4 | B6B2A2G2 | d3cc4z2
c2 | B6B2A2c2E2F2 | G8z4

